X:5267
T:Primrose path, The
O:england
M:C|
R:Reel
S:Paddy O'Neill
K:Em
B2 BA BdeB|dBAG FA D2|B2 BA BdeB|dBAd ~e4:|\
edBd efge|fdAd fd d2|edBd efge|fedf ~e4|\
edBd efge|fdd2 fdd2|~g3e ~f3e|dBAB ~e4||


